!!!SOCIAL_FUNCTION:	songs to insure success
!!!PDT:	1909
!!!OTL: No_76_Love-charm_Song.krn
!!!REG: Great_Lakes
!!!LANG: Non-Tone
!!!LING_GROUP: Algonquin
**kern
*staff1
*clefG2
*k[b-e-a-d-]
*M3/4
8cc\L
8cc\J
=1
4b-\
4b-\
12a-/L
12a-/
12f/J
=2
4a-/
4a-/
8b-\L
8b-\J
=3
4a-/
4a-/
12f/L
12f/
12f/J
=4
4f/
4f/
8f/L
8f/J
=5
4f/
4f/
12f/L
12f/
12f/J
=6
8.f/L
16cc/Jk
8.cc\L
16cc\Jk
8cc\
24cc\LL
24b-\
24a-\JJ
=7||
*M4/4
4a-/
4a-/
4a-/
8cc\L
8cc\J
=8||
*M3/4
4b-\
4b-\
12a-/L
12a-/
12f/J
=9
4a-/
4a-/
8b-\L
8b-\J
=10
4a-/
4a-/
12f/L
12f/
12f/J
=11
4f/
8.f/L
16f/Jk
4f/
=12||
*M2/4
2f/
==
*-
